design/assets/logos/enterprise.svg

<?xml version="1.0" encoding="UTF-8"?>
<svg width="124px" height="34px" viewBox="0 0 124 34" version="1.1" xmlns="http://www.w3.org/2000/svg" xmlns:xlink="http://www.w3.org/1999/xlink">
    <!-- Generator: Sketch 52.6 (67491) - http://www.bohemiancoding.com/sketch -->
    <title>Artboard</title>
    <desc>Created with Sketch.</desc>
    <g id="Artboard" stroke="none" stroke-width="1" fill="none" fill-rule="evenodd">
        <path d="M46.6649046,15.8816292 L46.6649046,17.8014372 L40.4240742,17.8014372 L40.4240742,21.1829172 L46.0805994,21.1829172 L46.0805994,23.0823636 L40.4240742,23.0823636 L40.4240742,26.7558144 L46.6649046,26.7558144 L46.6649046,28.6967112 L38.2948326,28.6967112 L38.2948326,15.8816292 L46.6649046,15.8816292 Z M48.3429914,19.4295653 L50.4300554,19.4295653 L50.4300554,20.3062049 C50.9310962,19.7218997 51.8495498,19.2212225 52.9348958,19.2212225 C55.0430486,19.2212225 56.2120226,20.6192645 56.2120226,22.6645145 L56.2120226,28.6966385 L54.124595,28.6966385 L54.124595,23.0197517 C54.124595,21.8718665 53.5613786,21.1203053 52.3713158,21.1203053 C51.4735874,21.1203053 50.6598506,21.6838853 50.4300554,22.6023389 L50.4300554,28.6966385 L48.3429914,28.6966385 L48.3429914,19.4295653 Z M58.6477062,21.1619739 L57.1863978,21.1619739 L57.1863978,19.4294199 L58.6477062,19.4294199 L58.6477062,16.9456683 L60.7347702,16.9456683 L60.7347702,19.4294199 L62.8218342,19.4294199 L62.8218342,21.1619739 L60.7347702,21.1619739 L60.7347702,25.9625847 C60.7347702,26.7141459 61.152183,27.0479307 61.8408414,27.0479307 C62.2586178,27.0479307 62.7385698,26.8810383 63.0309042,26.6719683 L63.0309042,28.5717783 C62.675667,28.7801211 62.112087,28.9055631 61.4652426,28.9055631 C59.8163166,28.9055631 58.6477062,28.0289235 58.6477062,26.1920163 L58.6477062,21.1619739 Z M65.9445765,23.0197517 L70.1397933,23.0197517 C70.1187045,21.8925917 69.4718601,20.9741381 68.1985329,20.9741381 C67.0506477,20.9741381 66.1947333,21.6838853 65.9445765,23.0197517 Z M72.1225041,25.8161993 C71.8094445,27.6531065 70.4528529,28.9053449 68.2196217,28.9053449 C65.6315169,28.9053449 63.8364237,26.9437229 63.8364237,24.0843725 C63.8364237,21.3082865 65.6522421,19.2212225 68.1778077,19.2212225 C70.7866377,19.2212225 72.2061321,21.0784913 72.2061321,23.7920381 L72.2061321,24.5432357 L65.8820373,24.5432357 C65.9445765,26.1714365 66.8837553,27.1520657 68.2196217,27.1520657 C69.2217033,27.1520657 69.9729009,26.7139277 70.2023325,25.8161993 L72.1225041,25.8161993 Z M78.9248056,21.5376454 C78.6324712,21.328939 78.1314304,21.2249494 77.6932924,21.2249494 C76.8377416,21.2249494 76.0443664,21.7049014 75.83566,22.7066194 L75.83566,28.6965658 L73.748596,28.6965658 L73.748596,19.4294926 L75.83566,19.4294926 L75.83566,20.3897602 C76.1905336,19.7011018 77.004634,19.2211498 77.9019988,19.2211498 C78.3612256,19.2211498 78.7786384,19.3044142 78.9248056,19.3880422 L78.9248056,21.5376454 Z M82.2664714,25.8163448 C82.6217086,26.5471808 83.4143566,27.0482216 84.270271,27.0482216 C85.877383,27.0482216 86.837287,25.7748944 86.837287,24.0634292 C86.837287,22.351964 85.877383,21.0786368 84.270271,21.0786368 C83.4143566,21.0786368 82.6217086,21.5796776 82.2664714,22.3097864 L82.2664714,25.8163448 Z M82.2664714,32.2451564 L80.1794074,32.2451564 L80.1794074,19.4297108 L82.2664714,19.4297108 L82.2664714,20.2227224 C82.6838842,19.70132 83.6023378,19.2210044 84.6251446,19.2210044 C87.3383278,19.2210044 88.9247146,21.4753244 88.9247146,24.0634292 C88.9247146,26.651534 87.3383278,28.9054904 84.6251446,28.9054904 C83.6023378,28.9054904 82.6838842,28.4255384 82.2664714,27.9037724 L82.2664714,32.2451564 Z M95.6184452,21.5376454 C95.3261108,21.328939 94.82507,21.2249494 94.386932,21.2249494 C93.5313812,21.2249494 92.738006,21.7049014 92.5292996,22.7066194 L92.5292996,28.6965658 L90.4422356,28.6965658 L90.4422356,19.4294926 L92.5292996,19.4294926 L92.5292996,20.3897602 C92.8841732,19.7011018 93.6982736,19.2211498 94.5956384,19.2211498 C95.0548652,19.2211498 95.472278,19.3044142 95.6184452,19.3880422 L95.6184452,21.5376454 Z M96.8731924,28.6966022 L96.8731924,19.429529 L98.9602564,19.429529 L98.9602564,28.6966022 L96.8731924,28.6966022 Z M97.9163608,17.906045 C97.2277024,17.906045 96.622672,17.342465 96.622672,16.6330814 C96.622672,15.9233342 97.2277024,15.3597542 97.9163608,15.3597542 C98.6053828,15.3597542 99.2107768,15.9233342 99.2107768,16.6330814 C99.2107768,17.342465 98.6053828,17.906045 97.9163608,17.906045 Z M102.523318,26.0251239 C102.75275,26.7974103 103.441408,27.1940979 104.359862,27.1940979 C105.319766,27.1940979 105.946249,26.8184991 105.946249,26.0880267 C105.946249,25.5869859 105.633189,25.3157403 104.860903,25.1277591 L102.940367,24.6685323 C101.62559,24.3554727 100.644597,23.6457255 100.644597,22.1222415 C100.644597,20.4525903 102.126631,19.2210771 104.151519,19.2210771 C106.321847,19.2210771 107.553361,20.2646091 107.86642,21.9553491 L105.820807,21.9553491 C105.633189,21.3499551 105.090698,20.9325423 104.13043,20.9325423 C103.399594,20.9325423 102.648397,21.2663271 102.648397,21.9967995 C102.648397,22.4142123 102.940367,22.6854579 103.608301,22.8523503 L105.57065,23.3119407 C107.156673,23.6875395 107.950048,24.5849043 107.950048,25.9418595 C107.950048,27.7784031 106.426201,28.9055631 104.339137,28.9055631 C102.168081,28.9055631 100.665686,27.8202171 100.39444,26.0251239 L102.523318,26.0251239 Z M111.022105,23.0197517 L115.217321,23.0197517 C115.196596,21.8925917 114.549388,20.9741381 113.276425,20.9741381 C112.128539,20.9741381 111.272625,21.6838853 111.022105,23.0197517 Z M117.200396,25.8161993 C116.887336,27.6531065 115.530381,28.9053449 113.297513,28.9053449 C110.709409,28.9053449 108.913952,26.9437229 108.913952,24.0843725 C108.913952,21.3082865 110.72977,19.2212225 113.255699,19.2212225 C115.864529,19.2212225 117.284024,21.0784913 117.284024,23.7920381 L117.284024,24.5432357 L110.959565,24.5432357 C111.022105,26.1714365 111.961647,27.1520657 113.297513,27.1520657 C114.299231,27.1520657 115.050429,26.7139277 115.280224,25.8161993 L117.200396,25.8161993 Z M118.578004,27.8246894 L118.448926,27.8246894 L118.448926,27.9988538 L118.578004,27.9988538 C118.640906,27.9988538 118.674358,27.9617666 118.674358,27.9137714 C118.674358,27.8621402 118.640906,27.8246894 118.578004,27.8246894 Z M118.448926,28.146839 L118.448926,28.3799066 L118.26349,28.3799066 L118.26349,27.6694322 L118.592911,27.6694322 C118.752168,27.6694322 118.852158,27.7581506 118.852158,27.9137714 C118.852158,28.0246694 118.800163,28.0988438 118.711081,28.1282954 L118.87761,28.3799066 L118.674358,28.3799066 L118.526009,28.146839 L118.448926,28.146839 Z M118.537644,27.4661798 C118.234038,27.4661798 117.989699,27.6988838 117.989699,28.028669 C117.989699,28.357727 118.234038,28.5907946 118.537644,28.5907946 C118.840886,28.5907946 119.085226,28.357727 119.085226,28.028669 C119.085226,27.6988838 118.840886,27.4661798 118.537644,27.4661798 Z M118.537644,28.7056922 C118.171135,28.7056922 117.867529,28.4206298 117.867529,28.028669 C117.867529,27.635981 118.171135,27.3509186 118.537644,27.3509186 C118.903789,27.3509186 119.207032,27.635981 119.207032,28.028669 C119.207032,28.4206298 118.903789,28.7056922 118.537644,28.7056922 Z" id="product" fill="#FFAE1A"></path>
        <path d="M11.0125396,5.93560576 L11.0125396,3.10207096 L20.9860876,3.10207096 L20.9860876,5.93560576 L11.0125396,5.93560576 Z M20.9859785,14.3306571 L26.4985181,24.9361419 L26.3578049,25.4666343 C25.7767721,27.6598695 23.7860621,29.1917163 21.5168345,29.1917163 L10.4812109,29.1917163 C8.21234692,29.1917163 6.22163692,27.6598695 5.64024052,25.4666343 L5.49989092,24.9361419 L11.0124305,14.3306571 L11.0124305,8.76903148 L13.8459653,8.76903148 L13.8459653,15.0229515 L8.55776692,25.1975703 C8.92791172,25.8989547 9.66274732,26.3581815 10.4812109,26.3581815 L21.5168345,26.3581815 C22.3352981,26.3581815 23.0701337,25.8989547 23.4402785,25.1975703 L18.1524437,15.0229515 L18.1524437,8.76903148 L20.9859785,8.76903148 L20.9859785,14.3306571 Z M15.9990591,23.3403742 L13.9916235,21.3329386 L15.9990591,19.3258666 L18.0064947,21.3329386 L15.9990591,23.3403742 Z" id="bug" fill="#FFAE1A"></path>
        <path d="M41.2719894,8.72041816 C42.2308026,8.72041816 42.8034726,7.94740456 42.8034726,6.93114256 C42.8034726,5.90070016 42.2308026,5.12805016 41.2719894,5.12805016 C40.7425878,5.12805016 40.2844518,5.44256416 40.0695642,5.87233936 L40.0695642,7.97612896 C40.2844518,8.41972096 40.7567682,8.72041816 41.2719894,8.72041816 Z M41.6726766,3.58238656 C43.5332178,3.58238656 44.5923846,5.12805016 44.5923846,6.93114256 C44.5923846,8.73459856 43.5332178,10.2660818 41.6726766,10.2660818 C40.9858362,10.2660818 40.356081,9.93702376 40.0695642,9.59342176 L40.0695642,12.484769 L38.2948326,12.484769 L38.2948326,3.72564496 L40.0695642,3.72564496 L40.0695642,4.25504656 C40.356081,3.91144456 40.9858362,3.58238656 41.6726766,3.58238656 Z M49.244174,7.7901112 L49.244174,3.7254268 L51.033086,3.7254268 L51.033086,10.1229688 L49.2583544,10.1229688 L49.2583544,9.5361184 C48.900572,9.9368056 48.2849972,10.2662272 47.5410716,10.2662272 C46.1095784,10.2662272 45.2940236,9.3215944 45.2940236,7.9042816 L45.2940236,3.7254268 L47.0687552,3.7254268 L47.0687552,7.5468628 C47.0687552,8.2195228 47.3978132,8.6772952 48.0991976,8.6772952 C48.6431432,8.6772952 49.1154596,8.3482372 49.244174,7.7901112 Z M55.1839436,8.72041816 C56.1431204,8.72041816 56.7154268,7.94740456 56.7154268,6.93114256 C56.7154268,5.90070016 56.1431204,5.12805016 55.1839436,5.12805016 C54.6541784,5.12805016 54.196406,5.44256416 53.981882,5.87233936 L53.981882,7.97612896 C54.196406,8.41972096 54.6687224,8.72041816 55.1839436,8.72041816 Z M55.5846308,3.58238656 C57.445172,3.58238656 58.5043388,5.12805016 58.5043388,6.93114256 C58.5043388,8.73459856 57.445172,10.2660818 55.5846308,10.2660818 C54.8977904,10.2660818 54.2680352,9.93702376 53.981882,9.59342176 L53.981882,12.484769 L52.2067868,12.484769 L52.2067868,3.72564496 L53.981882,3.72564496 L53.981882,4.25504656 C54.2680352,3.91144456 54.8977904,3.58238656 55.5846308,3.58238656 Z M62.2544364,8.72041816 C63.2136132,8.72041816 63.7859196,7.94740456 63.7859196,6.93114256 C63.7859196,5.90070016 63.2136132,5.12805016 62.2544364,5.12805016 C61.7246712,5.12805016 61.2668988,5.44256416 61.0523748,5.87233936 L61.0523748,7.97612896 C61.2668988,8.41972096 61.7392152,8.72041816 62.2544364,8.72041816 Z M62.6554872,3.58238656 C64.5160284,3.58238656 65.5748316,5.12805016 65.5748316,6.93114256 C65.5748316,8.73459856 64.5160284,10.2660818 62.6554872,10.2660818 C61.9682832,10.2660818 61.338528,9.93702376 61.0523748,9.59342176 L61.0523748,12.484769 L59.2772796,12.484769 L59.2772796,3.72564496 L61.0523748,3.72564496 L61.0523748,4.25504656 C61.338528,3.91144456 61.9682832,3.58238656 62.6554872,3.58238656 Z M67.7649035,6.2299036 L70.2410195,6.2299036 C70.2268391,5.5572436 69.8257883,5.027842 69.0960431,5.027842 C68.4088391,5.027842 67.9223423,5.4427096 67.7649035,6.2299036 Z M69.0818627,3.582532 C70.9565843,3.582532 71.9870267,4.8849472 71.9870267,6.7596688 L71.9870267,7.3032508 L67.7219987,7.3032508 C67.7794475,8.2624276 68.3233931,8.834734 69.1102235,8.834734 C69.7116179,8.834734 70.1552099,8.5773052 70.2981047,8.0333596 L71.9441219,8.0333596 C71.7150539,9.39286 70.7133359,10.2662272 69.1102235,10.2662272 C67.2496823,10.2662272 66.0043523,8.9063632 66.0043523,6.931288 C66.0043523,4.9991176 67.2925871,3.582532 69.0818627,3.582532 Z M75.6511694,8.6916574 C75.9231422,8.6916574 76.2238394,8.6058478 76.4238194,8.4771334 L76.4238194,10.0515214 C76.1809346,10.1802358 75.7511594,10.251865 75.2792066,10.251865 C73.9767914,10.251865 73.160873,9.6079294 73.160873,8.1909802 L73.160873,5.1563746 L72.1875158,5.1563746 L72.1875158,3.7256086 L73.160873,3.7256086 L73.160873,1.9934182 L74.9210606,1.9934182 L74.9210606,3.7256086 L76.3238294,3.7256086 L76.3238294,5.1563746 L74.9210606,5.1563746 L74.9210606,7.9619122 C74.9210606,8.4625894 75.1930334,8.6916574 75.6511694,8.6916574 Z" id="puppet" fill="#090A0A"></path>
    </g>
</svg>

<svg width="124" height="34" xmlns="http://www.w3.org/2000/svg"><g fill="none" fill-rule="evenodd"><path d="M46.665 15.882v1.92h-6.24v3.38h5.656v1.9h-5.657v3.674h6.24v1.94h-8.37V15.883h8.37zm1.678 3.548h2.087v.876c.501-.584 1.42-1.085 2.505-1.085 2.108 0 3.277 1.398 3.277 3.444v6.032h-2.087V23.02c0-1.148-.564-1.9-1.754-1.9-.897 0-1.711.564-1.94 1.482v6.095h-2.088V19.43zm10.305 1.732h-1.462v-1.733h1.462v-2.483h2.087v2.483h2.087v1.733h-2.087v4.8c0 .752.417 1.086 1.106 1.086.418 0 .898-.167 1.19-.376v1.9c-.355.208-.919.334-1.566.334-1.649 0-2.817-.877-2.817-2.714v-5.03zm7.297 1.858h4.195c-.021-1.127-.668-2.046-1.941-2.046-1.148 0-2.004.71-2.254 2.046zm6.178 2.796c-.314 1.837-1.67 3.09-3.903 3.09-2.588 0-4.384-1.962-4.384-4.822 0-2.776 1.816-4.863 4.342-4.863 2.609 0 4.028 1.857 4.028 4.571v.751h-6.324c.063 1.628 1.002 2.61 2.338 2.61 1.002 0 1.753-.44 1.982-1.337h1.92zm6.802-4.278c-.293-.21-.794-.313-1.232-.313-.855 0-1.649.48-1.857 1.482v5.99h-2.087v-9.268h2.087v.96c.355-.688 1.169-1.168 2.066-1.168.46 0 .877.083 1.023.167v2.15zm3.341 4.278c.356.731 1.148 1.232 2.004 1.232 1.607 0 2.567-1.273 2.567-2.985 0-1.711-.96-2.984-2.567-2.984-.856 0-1.648.5-2.004 1.23v3.507zm0 6.43H80.18V19.43h2.087v.793c.418-.522 1.336-1.002 2.36-1.002 2.712 0 4.299 2.254 4.299 4.842 0 2.589-1.587 4.842-4.3 4.842-1.023 0-1.941-.48-2.359-1.001v4.341zm13.352-10.708c-.292-.21-.793-.313-1.231-.313-.856 0-1.649.48-1.858 1.482v5.99h-2.087v-9.268h2.087v.96c.355-.688 1.17-1.168 2.067-1.168.459 0 .876.083 1.022.167v2.15zm1.255 7.159V19.43h2.087v9.267h-2.087zm1.043-10.791c-.688 0-1.293-.564-1.293-1.273 0-.71.605-1.273 1.293-1.273.69 0 1.295.563 1.295 1.273s-.606 1.273-1.295 1.273zm4.607 8.12c.23.771.918 1.168 1.837 1.168.96 0 1.586-.376 1.586-1.106 0-.501-.313-.772-1.085-.96l-1.92-.46c-1.315-.313-2.296-1.022-2.296-2.546 0-1.67 1.482-2.9 3.507-2.9 2.17 0 3.401 1.043 3.714 2.733h-2.045c-.188-.605-.73-1.022-1.69-1.022-.731 0-1.483.333-1.483 1.064 0 .417.292.688.96.855l1.963.46c1.586.376 2.379 1.273 2.379 2.63 0 1.836-1.524 2.964-3.61 2.964-2.172 0-3.674-1.086-3.946-2.88h2.13zm8.5-3.006h4.194c-.02-1.127-.668-2.046-1.94-2.046-1.148 0-2.004.71-2.255 2.046zm6.177 2.796c-.313 1.837-1.67 3.09-3.902 3.09-2.589 0-4.384-1.962-4.384-4.822 0-2.776 1.816-4.863 4.342-4.863 2.609 0 4.028 1.857 4.028 4.571v.751h-6.324c.062 1.628 1.002 2.61 2.338 2.61 1.001 0 1.752-.44 1.982-1.337h1.92zm1.378 2.009h-.13v.174h.13c.063 0 .096-.037.096-.085 0-.052-.033-.09-.096-.09zm-.13.322v.233h-.185v-.71h.33c.16 0 .26.088.26.244 0 .11-.053.185-.142.214l.167.252h-.204l-.148-.233h-.077zm.09-.68a.543.543 0 0 0-.548.562c0 .329.244.562.548.562a.543.543 0 0 0 .547-.562.543.543 0 0 0-.547-.563zm0 1.239a.665.665 0 0 1-.67-.677c0-.393.303-.678.67-.678.366 0 .669.285.669.678a.664.664 0 0 1-.67.677zM11.013 5.936V3.102h9.973v2.834h-9.973zm9.973 8.395l5.513 10.605-.141.53a5.013 5.013 0 0 1-4.841 3.726H10.48a5.013 5.013 0 0 1-4.84-3.725l-.141-.53 5.512-10.606V8.769h2.834v6.254L8.558 25.198a2.177 2.177 0 0 0 1.923 1.16h11.036c.818 0 1.553-.459 1.923-1.16l-5.288-10.175V8.769h2.834v5.562zm-4.987 9.01l-2.007-2.008 2.007-2.007 2.007 2.007L16 23.34z" fill="#FFAE1A"/><path d="M41.272 8.72c.959 0 1.531-.773 1.531-1.789 0-1.03-.572-1.803-1.531-1.803-.53 0-.988.315-1.202.744v2.104c.214.444.687.744 1.202.744zm.4-5.138c1.861 0 2.92 1.546 2.92 3.35 0 1.803-1.059 3.334-2.92 3.334-.686 0-1.316-.329-1.602-.673v2.892h-1.775v-8.76h1.775v.53c.286-.344.916-.673 1.603-.673zm7.572 4.208V3.725h1.79v6.398h-1.776v-.587c-.357.4-.973.73-1.717.73-1.431 0-2.247-.944-2.247-2.362V3.725h1.775v3.822c0 .673.329 1.13 1.03 1.13.544 0 1.016-.329 1.145-.887zm5.94.93c.96 0 1.531-.773 1.531-1.789 0-1.03-.572-1.803-1.531-1.803-.53 0-.988.315-1.202.744v2.104c.214.444.687.744 1.202.744zm.4-5.138c1.861 0 2.92 1.546 2.92 3.35 0 1.803-1.059 3.334-2.92 3.334-.686 0-1.316-.329-1.602-.673v2.892h-1.775v-8.76h1.775v.53c.286-.344.916-.673 1.603-.673zm6.67 5.138c.96 0 1.532-.773 1.532-1.789 0-1.03-.572-1.803-1.532-1.803-.53 0-.987.315-1.202.744v2.104c.215.444.687.744 1.202.744zm.401-5.138c1.861 0 2.92 1.546 2.92 3.35 0 1.803-1.059 3.334-2.92 3.334-.687 0-1.316-.329-1.603-.673v2.892h-1.775v-8.76h1.775v.53c.287-.344.916-.673 1.603-.673zm5.11 2.648h2.476c-.014-.673-.415-1.202-1.145-1.202-.687 0-1.174.415-1.331 1.202zm1.317-2.647c1.875 0 2.905 1.302 2.905 3.177v.543h-4.265c.057.96.601 1.532 1.388 1.532.602 0 1.045-.258 1.188-.802h1.646c-.229 1.36-1.23 2.233-2.834 2.233-1.86 0-3.106-1.36-3.106-3.335 0-1.932 1.289-3.348 3.078-3.348zm6.57 5.109c.271 0 .572-.086.772-.215v1.575c-.243.128-.673.2-1.145.2-1.302 0-2.118-.644-2.118-2.061V5.156h-.973v-1.43h.973V1.993h1.76v1.733h1.403v1.43H74.92v2.806c0 .5.272.73.73.73z" fill="#090A0A"/></g></svg>
